src/img/carousel-arrows.svg

<svg xmlns="http://www.w3.org/2000/svg" width="15" height="94" viewBox="0 0 15 94">
  <path fill-rule="evenodd" d="M15 1.522L3.02 10.956l11.709 11.767L13.16 24 1.428 12.21l-.112.087L0 10.775l1.568-1.277.024.023L13.684 0 15 1.522z"/>
  <path fill-rule="evenodd" fill="#FFF" d="M15 71.522L3.02 80.956l11.709 11.767L13.16 94 1.428 82.21l-.112.087L0 80.775l1.568-1.277.024.023L13.684 70 15 71.522z"/>
</svg>

<svg
 xmlns="http://www.w3.org/2000/svg"
 xmlns:xlink="http://www.w3.org/1999/xlink"
 width="15" height="94" viewBox="0 0 15 94">
<path fill-rule="evenodd"  fill="rgb(0, 0, 0)"
 d="M15.000,1.522 L3.020,10.956 L14.729,22.723 L13.160,24.000 L1.428,12.210 L1.316,12.297 L-0.000,10.775 L1.568,9.498 L1.592,9.521 L13.684,-0.000 L15.000,1.522 Z"/>
<path fill-rule="evenodd"  fill="rgb(255, 255, 255)"
 d="M15.000,71.522 L3.020,80.956 L14.729,92.723 L13.160,94.000 L1.428,82.210 L1.316,82.297 L-0.000,80.775 L1.568,79.498 L1.592,79.521 L13.684,70.000 L15.000,71.522 Z"/>
</svg>
